material/.icons/material/camera-rear-variant.svg

<svg xmlns="http://www.w3.org/2000/svg" viewBox="0 0 24 24"><path d="M6 0h12a2 2 0 012 2v20a2 2 0 01-2 2H6a2 2 0 01-2-2V2a2 2 0 012-2m6 2a2 2 0 00-2 2 2 2 0 002 2 2 2 0 002-2 2 2 0 00-2-2m1 16H9v2h4v2l3-3-3-3v2z"/></svg>

<?xml version="1.0" encoding="UTF-8"?><!DOCTYPE svg PUBLIC "-//W3C//DTD SVG 1.1//EN" "http://www.w3.org/Graphics/SVG/1.1/DTD/svg11.dtd"><svg xmlns="http://www.w3.org/2000/svg" xmlns:xlink="http://www.w3.org/1999/xlink" version="1.1" id="mdi-camera-rear-variant" width="24" height="24" viewBox="0 0 24 24"><path d="M6,0H18A2,2 0 0,1 20,2V22A2,2 0 0,1 18,24H6A2,2 0 0,1 4,22V2A2,2 0 0,1 6,0M12,2A2,2 0 0,0 10,4A2,2 0 0,0 12,6A2,2 0 0,0 14,4A2,2 0 0,0 12,2M13,18H9V20H13V22L16,19L13,16V18Z" /></svg>
